X:1
T:E = MC^2
M:C|
L:1/8
Q:150
C:(c) Greg Anderson, April 1997
R:Slow Reel
N:Written with my beautiful, enthusiastic, and energetic little girls in
N:mind. For Evelyn, Merretta, and Clarissa
K:D
A|fgaf gfec|defA- AAdd|cdef g2 e2|dfba- aaaa|
agfa gfec|defA- AAdd|cdef g2 e2|1dAfd- d3 :|2dAfd- dded
|:cdef g2 f2|edcA- A3 A|b2 a2 e4|zAGF E2 D2|cdef gfed|
cdea- aaaa|abag f2 e2|1dAfd- dded:|2dAFD- D3 ||
